!!!COM: Palestrina, Giovanni Perluigi da
!!!OPR: Missa Quam pulchra es
!!!OTL: Gloria
**kern	**kern	**kern	**kern
*Ibass	*Itenor	*Icalto	*Icant
!Bassus	!Tenor	!Altus	!Cantus
*clefF4	*clefGv2	*clefG2	*clefG2
*k[]	*k[]	*k[]	*k[]
*C:ion	*C:ion	*C:ion	*C:ion
*M4/2	*M4/2	*M4/2	*M4/2
=1	=1	=1	=1
1r	1.c	0r	0r
[1F	.	.	.
.	2c	.	.
=2	=2	=2	=2
2F]	2d	0r	0r
2F	2d	.	.
2G	1e	.	.
2G	.	.	.
=3	=3	=3	=3
1A	2r	0r	0r
.	2c	.	.
2r	2d	.	.
2F	2f	.	.
=4	=4	=4	=4
2G	2e	0r	0r
2B-	2d	.	.
2A	2e	.	.
2G	[2e	.	.
=5	=5	=5	=5
2A	4e]	0r	1r
.	4d	.	.
2.A	4c	.	.
.	4B	.	.
.	2c	.	[1cc
4G	.	.	.
4F	[2A	.	.
4E	.	.	.
=6	=6	=6	=6
2F	2A]	1.f	2cc]
2F	2.c	.	2cc
1D	.	.	2dd
.	4B	.	.
.	4B	2f	2dd
.	4A	.	.
=7	=7	=7	=7
2C	1c	2g	1ee
2C	.	2g	.
2F	1c	1a	2r
2F	.	.	2cc
=8	=8	=8	=8
2D	0r	2r	2dd
2d	.	2f	2ff
2c	.	2g	2ee
2G	.	2b-	2dd
=9	=9	=9	=9
2.c	0r	2a	2ee
.	.	2g	2.ee
4B-	.	.	.
2.A	.	2a	.
.	.	.	4dd
.	.	[2a	4cc
4G	.	.	4b
=10	=10	=10	=10
2F	1r	2a]	2cc
2G	.	1g	2b
1D	2r	.	1a
.	2d	2f#	.
=11	=11	=11	=11
2r	2e	4g	1g
.	.	4f	.
2G	2g	4e	.
.	.	4d	.
2A	2f	1c	1r
2c	2e	.	.
=12	=12	=12	=12
2B	2d	2r	0r
2A	2e	2c	.
2G	2B	2d	.
[2A	[2c	2f	.
=13	=13	=13	=13
2A]	2c]	2e	0r
2F	2A	2d	.
2G	2B	2.e	.
[2A	2c	.	.
.	.	4d	.
=14	=14	=14	=14
4A]	2.A	4c	1r
4G	.	4B	.
1F	.	1A	.
.	4B	.	.
.	4c	.	2r
.	4d	.	.
2E	2e	[2c	2cc
=15	=15	=15	=15
1D	2f	2c]	2dd
.	2d	2B	1ff
2C	[1g	1c	.
[2c	.	.	2ee
=16	=16	=16	=16
2c]	0g]	1G	1dd
2B	.	.	.
2c	.	2r	[1ee
2c	.	2g	.
=17	=17	=17	=17
1A	2r	2a	1ee]
.	2c	2cc	.
1r	2d	2b	2dd
.	[2f	[2a	2cc
=18	=18	=18	=18
0r	2f]	2a]	4dd
.	.	.	4cc
.	2e	2g	1cc
.	2d	2f	.
.	2e	2g	2b
=19	=19	=19	=19
0r	4e	2.c	2.ee
.	4d	.	.
.	4c	.	.
.	4B	4d	4dd
.	2A	4e	2cc
.	.	4f#	.
.	2G	[2g	2b
=20	=20	=20	=20
1r	2c	2g]	1a
.	2d	2f#	.
2r	1e	1g	2r
2E	.	.	2g
=21	=21	=21	=21
2F	1c	2r	2a
2A	.	2e	2cc
2G	2d	2g	2b
4F	2f	2a	4a
4G	.	.	4b
=22	=22	=22	=22
4A	2.e	2a	4cc
4B	.	.	4dd
2.c	.	4g	2.ee
.	4d	4f	.
.	1c	2e	.
4B	.	.	4dd
2A	.	2f#	[2cc
=23	=23	=23	=23
1G	1d	1g	2cc]
.	.	.	2b
1C	[1c	2r	1cc
.	.	[2g	.
=24	=24	=24	=24
2r	1c]	2g]	1ee
2c	.	2e	.
2A	1r	1f	2cc
2B	.	.	2dd
=25	=25	=25	=25
2.c	1r	2e	2.ee
.	.	2c	.
8B	.	.	8dd
8A	.	.	8cc
2G	2r	2d	2b
2G	2e	2B	2b
=26	=26	=26	=26
2A	2c	2.A	2cc
2F	2d	.	2a
.	.	4B	.
4C	2.e	1c	2.g
4D	.	.	.
4E	.	.	.
4F	8d	.	4a
.	8c	.	.
=27	=27	=27	=27
1G	2B	2r	4b
.	.	.	4cc
.	2B	2g	2.dd
1r	2c	2e	.
.	.	.	4cc
.	2A	2f	[2cc
=28	=28	=28	=28
1r	1G	2.g	2cc]
.	.	.	2b
.	.	8f	.
.	.	8e	.
2r	1r	2f	2a
2A	.	2e	[2cc
=29	=29	=29	=29
2F	2r	2d	4cc]
.	.	.	8b
.	.	.	8a
2G	2g	2d	2b
2.A	2e	1c	1cc
.	2f	.	.
8G	.	.	.
8F	.	.	.
=30	=30	=30	=30
2E	1g	2r	2r
2E	.	2e	2cc
2F	2.f	2c	2a
2D	.	2d	2b
.	8e	.	.
.	8d	.	.
=31	=31	=31	=31
2.C	1.g	2.e	2cc
.	.	.	2ee
4D	.	8d	.
.	.	8c	.
4E	.	2B	2ee
4F	.	.	.
2G	2g	2B	[2dd
=32	=32	=32	=32
1C	2e	2c	4dd]
.	.	.	4cc
.	2c	2A	1cc
1r	1d	1G	.
.	.	.	2b
=33	=33	=33	=33
2r	2.e	0c	2cc
2.A	.	.	2.cc
.	4d	.	.
.	2e	.	.
4A	.	.	4cc
2F	2f	.	2a
=34	=34	=34	=34
2G	1e	1r	2b
2A	.	.	2cc
2.B-	1d	2r	2.dd
.	.	[2d	.
4A	.	.	4cc
=35	=35	=35	=35
2G	0r	4d]	2b-
.	.	4d	.
2F	.	2f	2a
1G	.	2e	1b-
.	.	2d	.
=36	=36	=36	=36
1A	2r	4c	4a
.	.	4d	4b
.	2.e	4e	4cc
.	.	4f#	4a
1r	.	2g#	2b
.	4e	.	.
.	2c	[2a	[2cc
=37	=37	=37	=37
0r	2d	2a]	2cc]
.	2e	2g#	2.b
.	2.f	2a	.
.	.	.	4a
.	.	2cc	[2a
.	4e	.	.
=38	=38	=38	=38
1r	2d	1b	2a]
.	2e	.	2g#
2r	1A	1a	2a
2c	.	.	2ee
=39	=39	=39	=39
2c	1A	1e	2ee
2A	.	.	2cc
2B	1r	2r	2dd
2c	.	2a	2ee
=40	=40	=40	=40
2.d	0r	2a	2.ff
.	.	2f	.
4c	.	.	4ee
2B	.	2g	2dd
2A	.	2a	2cc
=41	=41	=41	=41
1G	0r	4b	2dd
.	.	4a	.
.	.	4g	2.ee
.	.	4f	.
1r	.	2g	.
.	.	.	4dd
.	.	[2a	2cc
=42	=42	=42	=42
0r	2r	2a]	2.b
.	2.e	4g	.
.	.	4f	4a
.	.	2g	2b
.	4e	.	.
.	2c	2e	2cc
=43	=43	=43	=43
2r	2d	2f	0a
2.A	2e	4e	.
.	.	4d	.
.	2.f	1c	.
4A	.	.	.
2F	.	.	.
.	4e	.	.
=44	=44	=44	=44
2G	2d	0r	0r
2A	2c	.	.
4B-	2d	.	.
4A	.	.	.
4G	[2e	.	.
4F	.	.	.
=45	=45	=45	=45
2G	4e]	1r	2r
.	4d	.	.
2A	4c	.	2.ee
.	4B	.	.
2E	2.c	2r	.
.	.	.	4ee
[2F	.	[2a	2cc
.	4B	.	.
=46	=46	=46	=46
2F]	2A	4a]	2dd
.	.	4a	.
2E	1c	2g	2ee
1D	.	2f	2ff
.	2B	2d	2ff
=47	=47	=47	=47
0C	0c	2e	1.ee
.	.	2c	.
.	.	4e	.
.	.	4f	.
.	.	4g	4dd
.	.	4e	4cc
=48	=48	=48	=48
0r	1r	4f#	2dd
.	.	4g#	.
.	.	1a	2cc
.	[1e	.	1b
.	.	2g#	.
=49	=49	=49	=49
0A	1e]	1a	0cc
.	1c	[1a	.
=50	=50	=50	=50
1F	1f	1a]	1a
[1B-	2.d	1f	[1dd
.	4e	.	.
=51	=51	=51	=51
2B-]	1f	0b-	0dd]
2A	.	.	.
1G	1g	.	.
=52	=52	=52	=52
2.A	2e	1a	[0cc
.	1f	.	.
4B	.	.	.
1c	.	2r	.
.	4e	[2g	.
.	4d	.	.
=53	=53	=53	=53
2r	1e	4g]	0cc]
.	.	4g	.
2.c	.	2g	.
.	1r	2a	.
4c	.	.	.
2c	.	2e	.
=54	=54	=54	=54
2d	2r	2f	0r
2B	2.g	2d	.
2.c	.	2.e	.
.	4g	.	.
.	2g	.	.
4B	.	4d	.
=55	=55	=55	=55
4A	2a	4c	0r
4G	.	4B	.
2A	2f	2c	.
4G	2.g	1B	.
4F	.	.	.
4E	.	.	.
4D	4f	.	.
=56	=56	=56	=56
2C	4e	1c	0r
.	4d	.	.
1c	2e	.	.
.	1d	1G	.
2B	.	.	.
=57	=57	=57	=57
1c	2.e	2.g	2r
.	.	.	2.cc
.	4d	4f	.
1r	2e	2g	.
.	.	.	4cc
.	2f	[2a	2cc
=58	=58	=58	=58
0r	2d	2a]	2dd
.	2e	4g	2b
.	.	4f	.
.	1c	4e	2.cc
.	.	4f	.
.	.	[2g	.
.	.	.	4b
=59	=59	=59	=59
1r	1d	2g]	4a
.	.	.	4g
.	.	2f	2a
2r	2G	2e	4g
.	.	.	4a
[2G	[2g	4d	4b
.	.	4c	4cc
=60	=60	=60	=60
4G]	2g]	1B	4dd
4G	.	.	4ee
2G	2g	.	2.dd
2A	2e	1c	.
.	.	.	4cc
2F	2f	.	[2cc
=61	=61	=61	=61
2.G	1d	2r	2cc]
.	.	2.g	2b
4F	.	.	.
4E	2r	.	2.ee
4D	.	4g	.
2E	[2c	2g	.
.	.	.	4dd
=62	=62	=62	=62
2F	4c]	2a	1cc
.	4c	.	.
2A	2c	2f	.
1G	2d	2.g	1b
.	2B	.	.
.	.	4f	.
=63	=63	=63	=63
2r	2.c	4e	1r
.	.	4d	.
2C	.	2e	.
.	4B	.	.
2D	4A	2d	2r
.	4G	.	.
2F	2A	4c	[2cc
.	.	4d	.
=64	=64	=64	=64
2E	2.G	4e	4cc]
.	.	4f	4cc
2C	.	1g	2cc
.	4A	.	.
1G	4B	.	2dd
.	4c	.	.
.	2d	2g	2b
=65	=65	=65	=65
1C	4c	2e	2.cc
.	4d	.	.
.	4e	2c	.
.	8d	.	4b
.	8e	.	.
1r	1f	4d	4a
.	.	4e	4g
.	.	[2f	2a
=66	=66	=66	=66
2r	1c	2f]	1g
2.c	.	4e	.
.	.	4d	.
.	2r	1e	1cc
4c	.	.	.
2c	2g	.	.
=67	=67	=67	=67
2d	2f	2r	2a
2B	2d	2.g	2dd
2.c	[1e	.	4cc
.	.	4g	4dd
.	.	2g	4ee
4B	.	.	4dd
=68	=68	=68	=68
4A	2e]	2a	4cc
4G	.	.	4b
2A	4d	2f	2.cc
.	4c	.	.
1G	1d	2.g	.
.	.	.	8b
.	.	.	8a
.	.	.	2b
.	.	4f	.
=69	=69	=69	=69
0C	2.c	4e	0cc
.	.	4d	.
.	.	4e	.
.	4d	4f	.
.	1e	1g	.
=70	=70	=70	=70
0G	0d	0g	0b
=71	=71	=71	=71
0r	0r	1r	1g
.	.	1c	1cc
=72	=72	=72	=72
0r	0r	1f	2cc
.	.	.	2cc
.	.	2f	2.ff
.	.	2f	.
.	.	.	4ee
=73	=73	=73	=73
0r	0r	2.b-	4dd
.	.	.	4cc
.	.	.	2dd
.	.	4a	.
.	.	4g	2b
.	.	4f	.
.	.	2g	[2ee
=74	=74	=74	=74
0r	1r	2e	4ee]
.	.	.	4dd
.	.	2f	1cc
.	1G	1d	.
.	.	.	2b
=75	=75	=75	=75
1C	1c	1e	1cc
1F	2c	1a	1r
.	2c	.	.
=76	=76	=76	=76
2F	2.f	1a	1cc
2F	.	.	.
.	4e	.	.
2.B-	4d	1f	1dd
.	4c	.	.
.	2d	.	.
4A	.	.	.
=77	=77	=77	=77
4G	2B	1g	2dd
4F	.	.	.
2G	2.e	.	2b
2E	.	2g	2cc
.	4d	.	.
2F	[2c	2a	2cc
=78	=78	=78	=78
1D	2c]	1f	1dd
.	2B	.	.
2C	1c	1e	1g
[2c	.	.	.
=79	=79	=79	=79
4c]	1G	1d	2r
8B	.	.	.
8A	.	.	.
2B	.	.	2dd
2c	1r	1g	2.ee
2c	.	.	.
.	.	.	8dd
.	.	.	8ee
=80	=80	=80	=80
2A	1r	2a	2ff
2c	.	2g	2ee
1G	2r	2.b	2.dd
.	2d	.	.
.	.	4a	4cc
=81	=81	=81	=81
0r	2.e	4g	2b
.	.	4f	.
.	.	2g	2.cc
.	8d	.	.
.	8e	.	.
.	2f	4a	.
.	.	4d	4b
.	2e	[2g	2g
=82	=82	=82	=82
1r	1d	2g]	2a
.	.	2f#	2a
1G	1d	2g	2.b
.	.	2d	.
.	.	.	8a
.	.	.	8b
=83	=83	=83	=83
2E	1G	2.e	2cc
2G	.	.	2b
.	.	8d	.
.	.	8e	.
2D	1r	2f	2a
4E	.	2e	4g
4F	.	.	4a
=84	=84	=84	=84
4G	2r	2d	4b
4A	.	.	4cc
2.G	2d	4B	4dd
.	.	4c	4ee
.	2B	4d	2.dd
4F	.	4e	.
2D	2d	4f	.
.	.	8e	4cc
.	.	8f	.
=85	=85	=85	=85
2E	2G	2g	2b
2F	4A	2f	2.a
.	4B	.	.
2C	4c	2e	.
.	4B	.	4g
2E	4A	2c	[2g
.	4G	.	.
=86	=86	=86	=86
1D	1A	1d	2g]
.	.	.	2f#
2.G	1B	2r	1g
.	.	2d	.
4F	.	.	.
=87	=87	=87	=87
1.E	2r	1g	0r
.	2G	.	.
.	1c	2g	.
2C	.	2g	.
=88	=88	=88	=88
0C	1c	2.cc	2r
.	.	.	2g
.	.	4b	.
.	2r	2a	1cc
.	2c	2g	.
=89	=89	=89	=89
0r	2.f	1a	2cc
.	.	.	2cc
.	4e	.	.
.	4d	2a	2.ff
.	4c	.	.
.	2d	2f	.
.	.	.	4ee
=90	=90	=90	=90
0r	2G	2b-	4dd
.	.	.	4cc
.	2d	2.a	2dd
.	2e	.	2b
.	.	4g	.
.	2c	[2g	2cc
=91	=91	=91	=91
1D	1d	2g]	1a
.	.	2f#	.
1G	2d	1g	[1b
.	2d	.	.
=92	=92	=92	=92
2G	2.g	1r	1b]
2G	.	.	.
.	4f	.	.
2.c	4e	1g	2r
.	4d	.	.
.	2e	.	2ee
4B	.	.	.
=93	=93	=93	=93
4A	2c	4cc	2ee
4G	.	4b	.
2A	2.f	4a	2cc
.	.	4g	.
2F	.	2a	1dd
.	4e	.	.
2G	[2d	2b	.
=94	=94	=94	=94
1E	2d]	1.g	1ee
.	2c#	.	.
1D	1d	.	1a
.	.	2f#	.
=95	=95	=95	=95
1.G	1.d	2r	1.b
.	.	1g	.
2G	2d	2g	2b
=96	=96	=96	=96
1G	2d	1g	1b
.	2.g	.	.
[1c	.	1r	[1ee
.	4f	.	.
.	4e	.	.
.	4d	.	.
=97	=97	=97	=97
2c]	2c	0r	2ee]
2B	2d	.	2dd
2A	2e	.	2cc
2G	2e	.	2b
=98	=98	=98	=98
1F	4A	1.cc	1.a
.	4B	.	.
.	4c	.	.
.	4d	.	.
1E	1e	.	.
.	.	2b	2g
=99	=99	=99	=99
2F	2.c	2a	2f
2C	.	2g	2e
.	4B	.	.
2.D	2A	1f	4d
.	.	.	4e
.	4a	.	4f
4E	4g	.	4g
=100	=100	=100	=100
4F	4f	1c	4a
4G	4e	.	4b
2A	4e	.	1cc
.	8d	.	.
.	8c	.	.
1G	1d	1g	.
.	.	.	2b
=101	=101	=101	=101
2r	2.c	2.e	2cc
2c	.	.	2ee
.	4d	4f	.
2c	1e	2g	2ee
2A	.	2a	2cc
=102	=102	=102	=102
1B	1r	0g	1dd
2.c	2r	.	2.ee
.	2e	.	.
8B	.	.	8dd
8A	.	.	8cc
=103	=103	=103	=103
2G	2e	0r	2b
2A	2c	.	2cc
1F	1d	.	1a
=104	=104	=104	=104
2.E	2.e	2r	2.g
.	.	2g	.
4F	8d	.	4a
.	8c	.	.
2G	2B	2g	2b
2C	2c	2e	2g
=105	=105	=105	=105
1D	1A	1f	2.dd
.	.	.	4cc
1r	2.G	2.g	4b
.	.	.	4a
.	.	.	[2b
.	4A	8f	.
.	.	8e	.
=106	=106	=106	=106
2r	2B	2d	4b]
.	.	.	4a
1c	2c	2e	1g
.	1A	1c	.
2A	.	.	2f#
=107	=107	=107	=107
1B	1G	1d	1g
2.c	2r	1e	2r
.	[2e	.	[2gg
8B	.	.	.
8A	.	.	.
=108	=108	=108	=108
2G	2e]	2r	2gg]
2A	2c	1a	2ee
1D	1d	.	4ff
.	.	.	4ee
.	.	2f	4dd
.	.	.	4cc
=109	=109	=109	=109
0r	2.e	0g	4b
.	.	.	4a
.	.	.	4b
.	8d	.	4cc
.	8c	.	.
.	2B	.	2dd
.	2c	.	2ee
=110	=110	=110	=110
2r	2.A	2.a	2ff
1A	.	.	1ee
.	4B	8g	.
.	.	8f	.
.	1c	2e	.
2F	.	2f	4dd
.	.	.	4cc
=111	=111	=111	=111
2G	1r	1d	4b
.	.	.	4a
2G	.	.	2b
2.A	2r	[1c	2cc
.	[2c	.	[2ee
8G	.	.	.
8F	.	.	.
=112	=112	=112	=112
2E	2c]	1c]	2ee]
2F	2A	.	2cc
1D	2B	1r	2dd
.	2B	.	2dd
=113	=113	=113	=113
1C	2.c	2r	2.ee
.	.	1g	.
.	4d	.	8dd
.	.	.	8cc
1r	2e	.	2b
.	2c	2e	2cc
=114	=114	=114	=114
0r	1d	2f	2.a
.	.	2f	.
.	.	.	4b
.	2.e	2.g	2cc
.	.	.	[2b
.	8d	8f	.
.	8c	8e	.
=115	=115	=115	=115
1r	2B	2d	4b]
.	.	.	4a
.	2c	2e	1g
2r	1A	1c	.
2c	.	.	2f#
=116	=116	=116	=116
2d	2G	4B	1g
.	.	4c	.
2G	2g	4d	.
.	.	4B	.
4A	2f	1c	2r
4B	.	.	.
4c	2e	.	2cc
4A	.	.	.
=117	=117	=117	=117
2.B	2d	0r	2dd
.	1g	.	2g
4c	.	.	.
2A	.	.	4a
.	.	.	4b
2A	2f#	.	4cc
.	.	.	4a
=118	=118	=118	=118
1G	1g	2r	2b
.	.	2g	2b
1r	2r	2a	2cc
.	2f	2d	2dd
=119	=119	=119	=119
0r	2g	4e	2b
.	.	4f	.
.	2c	4g	2ee
.	.	4e	.
.	4d	4f	2dd
.	4e	4g	.
.	4f	[2a	4cc
.	4d	.	4b
=120	=120	=120	=120
0r	2e	4a]	4cc
.	.	4g	4b
.	2e	1g	4b
.	.	.	8a
.	.	.	8g
.	1d	.	2a
.	.	2f#	2a
=121	=121	=121	=121
2r	2r	1g	1g
2c	2e	.	.
2d	2f	2r	1r
2G	2d	2b	.
=122	=122	=122	=122
4A	1c	2cc	1r
4B	.	.	.
4c	.	2a	.
4A	.	.	.
2B	2d	1g	2r
[2c	2e	.	2cc
=123	=123	=123	=123
2c]	1d	1g	2dd
2B	.	.	2g
2A	2r	1c	4a
.	.	.	4b
2A	2f	.	4cc
.	.	.	4a
=124	=124	=124	=124
2G	2g	2d	4b
.	.	.	8a
.	.	.	8b
2.F	2c	2a	2cc
.	4d	1f	[1a
4G	4e	.	.
4A	4f	.	.
4B	4d	.	.
=125	=125	=125	=125
2c	2e	2e	2a]
2d	1f	1d	2a
2B	.	.	[1g
2c	2e	[2c	.
=126	=126	=126	=126
1G	1d	2c]	1g]
.	.	2B	.
[1C	1e	2.c	1g
.	.	4d	.
=127	=127	=127	=127
1C]	1c	1e	1cc
1r	1f	2r	1a
.	.	[2d	.
=128	=128	=128	=128
1G	1d	2d]	1b
.	.	1g	.
1c	1e	.	2g
.	.	[2e	[2cc
=129	=129	=129	=129
1A	2c	2e]	4cc]
.	.	.	4b
.	2c	2.f	1a
1B-	1d	.	.
.	.	4e	.
.	.	[2d	2g
=130	=130	=130	=130
1A	1e	2d]	0a
.	.	2c#	.
2r	1d	2d	.
2d	.	2f	.
=131	=131	=131	=131
2d	2r	2f	0r
2c	2g	2e	.
2B	2g	2d	.
4A	2f	2d	.
4G	.	.	.
=132	=132	=132	=132
2A	2e	2c	1r
2A	4d	2cc	.
.	4c	.	.
1G	2.d	2cc	2r
.	.	2b	2dd
.	4e	.	.
=133	=133	=133	=133
0r	2f	2a	2dd
.	4e	4g	2cc
.	4d	4f	.
.	4e	2g	2b
.	4f	.	.
.	[2g	2e	4a
.	.	.	4g
=134	=134	=134	=134
1r	2g]	1d	2a
.	2f#	.	2a
2r	1g	2.e	2g
2c	.	.	2ee
.	.	4f	.
=135	=135	=135	=135
2c	2r	2g	2ee
2A	2f	2a	2cc
2.B-	2f	1d	2.dd
.	2d	.	.
4A	.	.	4cc
=136	=136	=136	=136
2G	2.e	0r	2b
1A	.	.	1cc
.	4d	.	.
.	2c	.	.
2F	2d	.	2a
=137	=137	=137	=137
2.G	2B	1r	1b
.	2.e	.	.
4F	.	.	.
2E	.	2r	1cc
.	4d	.	.
2F	[2c	2f	.
=138	=138	=138	=138
1D	2c]	2f	1dd
.	2B	2d	.
1C	2.c	2.e	1g
.	4d	4d	.
=139	=139	=139	=139
1r	2e	2c	1a
.	2f	2d	.
2r	2d	2B	[1g
[2C	4c	[2e	.
.	4d	.	.
=140	=140	=140	=140
4C]	4e	4e]	0g]
4D	4f	4d	.
4E	2e	1c	.
4F	.	.	.
1G	1d	.	.
.	.	2B	.
=141	=141	=141	=141
0C	0e	1c	2r
.	.	.	2gg
.	.	2cc	2gg
.	.	2cc	2ee
=142	=142	=142	=142
1r	1r	2a	2.ff
.	.	2.b-	.
.	.	.	4ee
2r	2g	.	2dd
.	.	4a	.
2c	2g	[2g	[2ee
=143	=143	=143	=143
2c	2e	2g]	2ee]
2A	2.f	2a	2cc
2.B-	.	1f	2.dd
.	4e	.	.
.	2d	.	.
4A	.	.	4cc
=144	=144	=144	=144
2G	1e	2g	2b
1A	.	1e	2cc
.	2c	.	1a
2F	[2d	2f	.
=145	=145	=145	=145
2.G	4d]	1d	2g
.	4c	.	.
.	2B	.	2dd
4F	.	.	.
2E	2G	2r	2ee
2F	[2c	2f	2cc
=146	=146	=146	=146
1D	2c]	2f	2dd
.	2B	2d	2ff
1C	2c	2e	1ee
.	[2g	4c	.
.	.	4d	.
=147	=147	=147	=147
1c	2g]	4e	1ee
.	.	4f	.
.	2e	2g	.
2A	1f	2a	2cc
[2B-	.	2d	[2dd
=148	=148	=148	=148
2B-]	2d	2f	2dd]
4A	1e	2.g	4cc
4G	.	.	4b-
1A	.	.	1cc
.	.	8f	.
.	.	8e	.
.	4d	2f	.
.	4c	.	.
=149	=149	=149	=149
1G	2d	0g	2b
.	2e	.	1cc
1G	1d	.	.
.	.	.	2b
=150	=150	=150	=150
0C	0c	0e	0cc
==	==	==	==
*-	*-	*-	*-
!!!CDT: 1525/^1526/-1594/2/2
!!!OCY: Italia
!!!AGN: Mass (Parody)
!!!AST: renaissance, vocal
!!!ASW: Motet 1532 (Johannes Lupi)
!!!PWK: Masses, Book 6
!!!RNB: Cadence finals: G
!!!YOR: Le Opere Complete, v. 21, p. 73
!!!YOO: Rome, Italy: Fratelli Scalera
!!!END: 1992//
!!!EED: John Miller
!!!YEC: Copyright 2000, John Miller
!!!YEN: United States of America
!!!YEM: Rights to all derivative electronic formats reserved.
!!!YEM: Refer to licensing agreement for further details.
!!!YEM: This file must be accompanied by the licensing agreement.
!!!YEM: A copy of the licensing agreement may be found at http://www.music-cog.ohio-state.edu/HumdrumDatabases/Palestrina/license.txt
!!!EMD: converted to Humdrum by Bret Aarden
